X:1
T:Ward, LM
T:Scottish melody, arr. by Lowell Mason, 1830
T:Ward, LM
T:Public Domain
C:Scottish melody, arr. by Lowell Mason, 1830
Z:Public Domain
%%score ( 1 2 ) ( 3 4 )
L:1/8
M:4/4
K:Bb
V:1 treble 
V:2 treble 
V:3 bass 
V:4 bass 
V:1
 [DF]2 [DF][FB] | [EA]2 [DB]2 | F2 [EG]2 | [DF]3 [DF] | [CF]2 [CF]2 | (F B2) [Fc] | %6
 [Fd]2 [Fc][=EB] | [Fc]4 | [DF]2 [DF][FB] | [EA]2 [DB]2 | F2 [EG]2 | [DF]3 [DF] | [CF]2 [CF]2 | %13
 (F B2) [Gc] | [Fd]2 [Ec]2 | [DB]4 |] %16
V:2
 x4 | x4 | F2 x2 | x4 | x4 | F3 x | x4 | x4 | x4 | x4 | F2 x2 | x4 | x4 | F3 x | x4 | x4 |] %16
V:3
 [B,,B,]2 [B,,B,][B,,D] | [F,C]2 [G,B,]2 | [D,B,]2 [E,B,]2 | [B,,B,]3 [B,,B,] | [F,A,]2 (F,E,) | %5
 [D,B,]3 [F,A,] | B,2 (A,G,) | [F,A,]4 | B,2 [B,,B,][B,,D] | [F,C]2 [G,B,]2 | [D,B,]2 [E,B,]2 | %11
 [B,,B,]3 [B,,B,] | [F,A,]2 (F,E,) | [D,B,]3 [E,B,] | [F,B,]2 [F,A,]2 | [B,,B,]4 |] %16
V:4
 x4 | x4 | x4 | x4 | x2 A,2 | x4 | B,2 C2 | x4 | B,2 x2 | x4 | x4 | x4 | x2 A,2 | x4 | x4 | x4 |] %16

